X:1
T:Title
%%score ( 1 2 ) { 3 | 4 }
L:1/8
Q:1/4=90
M:4/4
K:Eb
V:1 treble nm="Grand Piano, Soprano"
V:2 treble 
V:3 bass nm="Choir Pad, The Conqueror�s Tread"
V:4 bass 
V:1
 [AB] [Ge]2 [Ge]- [Ge]/[Ac]/ [GB]3 | z8 | z A z2 z4 | z8 | %4
w: By~R.~E.~McNeill * * * * *||||
 [AB] [Ge]2 [Ge]- [Ge]/[Ac]/ [GB]2 [EG]- | [EG]/[EG]/[DF] [EG][FA] [Ac] [GB]2 [EG]- | %6
w: ||
 [EG]/[EG]/ [DF]2 [FB]- [FB]/[Bc]/ [Bd]2 [FB]- | [FB]/[Bd]/ [Af]2 [=Ac]- [Ac]/[Ad]/ [FB]3 | %8
w: ||
 [F=A] [F_A]2 [=EG] [FA] [Ad]2 [Ac]- | [Ac]/[AB]/ [GB]2 [_G=A] [=GB] [Ge]2 [GB]- | %10
w: ||
 [GB]/[EG]/ [DF]2 [FA] [Ac] [GB]2 [EG]- | [EG]/[EG]/ [DF]2 [E=A]- [EA]/[Ec]/ [DB]3 | %12
w: ||
 [AB] [Ge]2 [Ge]- [Ge]/[Ac]/ [GB]2 [EG]- | [EG]/[EG]/[DF] [EG][FA] [Ac] [GB]2 [EG]- | %14
w: ||
 [EG]/[EG]/E- [EB][Ac] [Ae] [GB]2 [Ge]- | [Ge]/[Ac]/ [Af]2 [Ad]- [Ad]/[AB]/ [Ge]3- | [Ge]4 z4 |] %17
w: |||
V:2
 x8 | [EG]/[EG]/[DF] [EG][FA] [Ac] [GB]2 [EG]- | [EG]/[EG]/E- [EB][Ac] [Ae] [GB]2 [EG]- | %3
 [EG]/[EG]/ [DF]2 [E=A]- [EA]/[Ec]/ [DB]3 | x8 | x8 | x8 | x8 | x8 | x8 | x8 | x8 | x8 | x8 | %14
 z A z2 z4 | x8 | x8 |] %17
V:3
 B, B,2 B,- B,/E/ E3 | B,/B,/ B,2 B, D E2 B,- | B,/B,/[K:treble] C2 E C E2 B,- | %3
 B,/[K:bass]B,/ B,2 F,- F,/F,/ F,3 | B, B,2 B,- B,/E/ E2 B,- | B,/B,/ B,2 B, D E2 B,- | %6
 B,/B,/ B,2[K:treble] D- D/E/ F2 D- | D/D/ C2 E- E/D/ D3 | B, B,2 B, B, B,2 B,- | %9
 B,/B,/[K:treble] E2 E E B,2 E- | E/[K:bass]B,/ B,2 B, D E2 B,- | B,/B,/ B,2 F,- F,/F,/ F,3 | %12
 B, B,2 B,- B,/E/ E2 B,- | B,/B,/ B,2 B, D E2 B,- | B,/B,/[K:treble] C2 E C E2 B,- | %15
 B,/[K:bass]B,/ B,2 B,- B,/B,/ B,3- | B,4 z4 |] %17
V:4
 z E,2 E,- E,/E,/ E,3 | E,/E,/ B,,2 B,, B,, E,2 E,- | E,/E,/ A,2 A, A, E,2 E,- | %3
 E,/E,/ F,2 F,,- F,,/F,,/ B,,3 | B,, E,2 E,- E,/E,/ E,2 E,- | E,/E,/ B,,2 B,, B,, E,2 E,- | %6
 E,/E,/ F,2 F,- F,/F,/ F,2 F,- | F,/F,/ F,2 F,- F,/F,/ B,3 | z4 z .B,,3 | z E,2 E, E, E,2 E,- | %10
 E,/E,/ B,,2 B,, B,, E,2 E,- | E,/E,/ F,2 F,,- F,,/F,,/ B,,3 | B,, E,2 E,- E,/E,/ E,2 E,- | %13
 E,/E,/ B,,2 B,, B,, E,2 E,- | E,/E,/ A,2 A, A, .B,3 | z B,,2 B,,- B,,/B,,/ E,3- | E,4 z4 |] %17

